images/icon/icon-blog.svg

<svg class="icon" viewBox="0 0 1024 1024" xmlns="http://www.w3.org/2000/svg" width="200" height="200"><path d="M384 192c247.424 0 448 200.576 448 448h-96c0-94.016-36.608-182.432-103.104-248.896C566.432 324.608 478.016 288 384 288v-96Zm0-192c353.472 0 640 286.528 640 640h-96c0-73.472-14.368-144.704-42.72-211.712-27.392-64.768-66.624-122.976-116.608-172.96-49.984-49.984-108.192-89.216-172.96-116.608C528.704 110.368 457.472 96 384 96V0Zm190.4 449.6c43.744 43.776 65.6 101.12 65.568 158.464C576 704.064 576 832 576 832c-256 0-448 192-448 192l-13.984-13.984L90.88 986.88l283.584-283.584c3.104.448 6.304.704 9.536.704 35.36 0 64-28.64 64-64s-28.64-64-64-64-64 28.64-64 64c0 3.232.256 6.432.704 9.536L37.12 933.12 0 896s192-192 192-448c0 0 128 0 224-64 57.312 0 114.656 21.856 158.4 65.6Z"/></svg>

<?xml version="1.0" standalone="no"?><!DOCTYPE svg PUBLIC "-//W3C//DTD SVG 1.1//EN" "http://www.w3.org/Graphics/SVG/1.1/DTD/svg11.dtd"><svg t="1671371946402" class="icon" viewBox="0 0 1024 1024" version="1.1" xmlns="http://www.w3.org/2000/svg" p-id="4845" xmlns:xlink="http://www.w3.org/1999/xlink" width="200" height="200"><path d="M384 192C631.424 192 832 392.576 832 640L736 640C736 545.984 699.392 457.568 632.896 391.104 566.432 324.608 478.016 288 384 288L384 192ZM384 0C737.472 0 1024 286.528 1024 640L928 640C928 566.528 913.632 495.296 885.28 428.288 857.888 363.52 818.656 305.312 768.672 255.328 718.688 205.344 660.48 166.112 595.712 138.72 528.704 110.368 457.472 96 384 96L384 0ZM574.4 449.6C618.144 493.376 640 550.72 639.968 608.064 576 704.064 576 832 576 832 320 832 128 1024 128 1024L114.016 1010.016 90.88 986.88 374.464 703.296C377.568 703.744 380.768 704 384 704 419.36 704 448 675.36 448 640 448 604.64 419.36 576 384 576 348.64 576 320 604.64 320 640 320 643.232 320.256 646.432 320.704 649.536L37.12 933.12 0 896C0 896 192 704 192 448 192 448 320 448 416 384 473.312 384 530.656 405.856 574.4 449.6Z" fill="#000000" p-id="4846"></path></svg>
